X:141
T:Wind Blew High, The
M:C|
L:1/8
C:© Paul Gitlitz 2001
R:Reel
B:Hunters and Gatherers
N:This tune was written in a windstorm that snapped a huge trunk
N:from the tree above my bedroom onto the roof and had me jump
N:bolt upright out of a sound sleep.
D:"To Have and To Hold" available @ www.glitchless.net
K:Em
"Em"e3e- e2fe|"D"dfed BAGA|"Em"e3e- e2fe|"D"defd a2f2|!
"Em"e3e- e2fe|"D"dfed BA G2|"Em"[GA] [G2B2]A "G"B2d^c|"F#sus4"BG F2"Em"[E4B4]:|!
|:"Em"B,2E"Bm"B, B,FB,B,|"G"GB,B,"D"F B,B, D2|"Em"B,B,E"Bm"B,  B,FB,B,|"G"GB,B,"D"A B,B, F2|!
"Em"B,2E"Bm"B, B,FB,B,|"G"GB,B,"D"F B,B, D2|[1"Em"E2F2G2A2|"D"BAGA- A4:|2"Em" E3F-F2G2-|G"D"A3 B^cd^d|]
